X: 8258
T: Coridinio
R: hornpipe
M: 4/4
K: Dmajor
|:Adf|edcd edcB|c2Ac egec|a2Ac egec|a2f3Adf|
edcd edc=c|B2GB dgfe|afdf gecA|d2dc d:|
|:=f=fe|edd=c =c_B_BA|A3c eAce|A2 Ac eAce|=f2d3=f=fe|
edd=c =c_B_BA|G3A _B=cde|=fdA=f ecAc|d2dc d:|
|:fg^g|a2fg afga|b2ga bgab|c'2ab c'abc'|d'2f'f'2fg^g|
a2fg afga|b2ga bgab|c'2c'd' c'abc'|d'afa d:|

